X: 14022
T: ELENA'S JIG
C: Bob McQuillen 16 June'08
B: Bob's Note Book 14 #22
%R: jig
%D:2008
Z: 2020 John Chambers <jc:trillian.mit.edu>
M: 6/8
L: 1/8
K: G
E \
| DGB dge | dBG E2D | GBG EDG | BdB A2E |\
| DGB dge | dBG E2D | GBG Adc | BGG G2 :|
|: B \
| dBd g2d | edB d2e | dBd geg | edB AGE |\
| DEG EGB | GBd e2d | ged BGB | AGG G2 :|
%%begintext align
%% Elena Mednick
%% is one of a neat matched pair of 8th graders
%% who are regulars at the Monday Night Dance
%% in Nelson. It's always such fun to watch them
%% on the floor. This is Elena's tune, of course, and
%% you'll find Iva's a little further on.
%%endtext

%%sep 1 1 500

%%sep 1 1 500

